polaris-icons/icons/new-icons/ImagesMajor.svg

<svg width="20" height="20" viewBox="0 0 20 20" fill="none" xmlns="http://www.w3.org/2000/svg">
<path d="M10.75 10.25C11.3023 10.25 11.75 9.80228 11.75 9.25C11.75 8.69772 11.3023 8.25 10.75 8.25C10.1977 8.25 9.75 8.69772 9.75 9.25C9.75 9.80228 10.1977 10.25 10.75 10.25Z" fill="#4A4A4A"/>
<path fill-rule="evenodd" clip-rule="evenodd" d="M6.0103 6.0103C6.13175 4.60376 7.31198 3.5 8.75 3.5H13.75C15.2688 3.5 16.5 4.73122 16.5 6.25V11.25C16.5 12.688 15.3962 13.8683 13.9897 13.9897C13.8682 15.3962 12.688 16.5 11.25 16.5H6.25C4.73122 16.5 3.5 15.2688 3.5 13.75V8.75C3.5 7.31198 4.60376 6.13175 6.0103 6.0103ZM5 13.75V12.7716L6.62513 10.8214C6.71924 10.7085 6.89001 10.7007 6.99396 10.8047L10.2197 14.0304C10.5126 14.3233 10.9874 14.3233 11.2803 14.0304L12.5 12.8107V13.75C12.5 14.4404 11.9404 15 11.25 15H6.25C5.55964 15 5 14.4404 5 13.75ZM12.5 8.75V10.6894L10.75 12.4394L8.05462 9.74402C7.32697 9.01637 6.13159 9.07059 5.4728 9.86114L5 10.4285V8.75C5 8.05964 5.55964 7.5 6.25 7.5H11.25C11.9404 7.5 12.5 8.05964 12.5 8.75ZM7.525 6H11.25C12.7688 6 14 7.23122 14 8.75V12.475C14.5706 12.3592 15 11.8547 15 11.25V6.25C15 5.55964 14.4404 5 13.75 5H8.75C8.14526 5 7.64082 5.42944 7.525 6Z" fill="#4A4A4A"/>
</svg>

<svg viewBox="0 0 20 20" xmlns="http://www.w3.org/2000/svg"><path d="M10.75 10.25a1 1 0 1 0 0-2 1 1 0 0 0 0 2Z" fill="#5C5F62"/><path fill-rule="evenodd" d="M6.01 6.01a2.75 2.75 0 0 1 2.74-2.51h5a2.75 2.75 0 0 1 2.75 2.75v5a2.75 2.75 0 0 1-2.51 2.74 2.75 2.75 0 0 1-2.74 2.51h-5a2.75 2.75 0 0 1-2.75-2.75v-5a2.75 2.75 0 0 1 2.51-2.74Zm-1.01 7.74v-.978l1.625-1.95a.25.25 0 0 1 .369-.017l3.226 3.225a.75.75 0 0 0 1.06 0l1.22-1.22v.94c0 .69-.56 1.25-1.25 1.25h-5c-.69 0-1.25-.56-1.25-1.25Zm7.5-5v1.94l-1.75 1.75-2.695-2.696a1.75 1.75 0 0 0-2.582.117l-.473.567v-1.678c0-.69.56-1.25 1.25-1.25h5c.69 0 1.25.56 1.25 1.25Zm-4.975-2.75h3.725a2.75 2.75 0 0 1 2.75 2.75v3.725c.57-.116 1-.62 1-1.225v-5c0-.69-.56-1.25-1.25-1.25h-5c-.605 0-1.11.43-1.225 1Z" fill="#5C5F62"/></svg>
